src/components/00-materials/images-raw/Man Woman.svg

<svg width="96" height="96" viewBox="0 0 96 96" fill="none" xmlns="http://www.w3.org/2000/svg">
<path d="M39.71 31.84C37.03 31.84 34.46 29.71 33.43 27.21C31.75 30.83 29.72 33.7 24.63 33.7H19.54V41.12C19.54 47.27 23.25 52.25 29.72 52.25C36.19 52.25 39.9 47.25 39.9 41.12V31.84H39.71Z" stroke="#00008F" stroke-width="2" stroke-linecap="round" stroke-linejoin="round"/>
<path d="M39.9 42.0501C41.3798 41.0076 42.5776 39.6139 43.3857 37.9942C44.1938 36.3744 44.587 34.5793 44.53 32.7701V27.2101C44.53 26.2269 44.1408 25.2837 43.4475 24.5867C42.7542 23.8896 41.8131 23.4954 40.83 23.4901C39.637 21.4823 37.9353 19.825 35.8968 18.6855C33.8583 17.5459 31.5551 16.9645 29.22 17.0001H28.13C26.3931 17.0014 24.6734 17.345 23.0694 18.0112C21.4653 18.6774 20.0082 19.6531 18.7814 20.8827C17.5546 22.1123 16.5822 23.5716 15.9196 25.1772C15.257 26.7827 14.9174 28.5032 14.92 30.2401V32.5201C14.92 36.1001 16.77 40.1901 19.54 42.0501M23.25 50.4001V55.0401M36.2 50.4001V55.0401M23 55.1101L15.21 56.2701C12.3369 56.6392 9.69437 58.0352 7.77004 60.2003C5.8457 62.3654 4.76947 65.1535 4.73999 68.0501V72.3801C4.75977 73.2516 5.08176 74.0892 5.65089 74.7495C6.22002 75.4099 7.00092 75.8519 7.85999 76.0001L18.1 77.9001C25.784 79.33 33.666 79.33 41.35 77.9001L47.09 76.1801M48.69 58.0001C47.3432 57.1277 45.8263 56.5516 44.24 56.3101L36.45 55.1501L48.69 58.0001Z" stroke="#00008F" stroke-width="2" stroke-linecap="round" stroke-linejoin="round"/>
<path d="M29.72 60.4901L36.2 55.0401L38.98 55.9701L37.13 64.3101L29.72 60.4901ZM29.72 60.4901L22.32 64.3101L20.47 55.9701L23.25 55.0401L29.72 60.4901ZM26.02 62.4601L27.87 66.1701M27.87 66.1701L26.02 78.2301M27.87 66.1701H31.57M33.42 62.4601L31.57 66.1701M31.57 66.1701L33.42 78.2301M14.92 72.5201V77.3101M71.83 31.8401H63.5C61.0718 31.9648 58.7674 32.9504 57 34.6201V41.1201C57 47.2701 60.7 52.2501 67.18 52.2501C73.66 52.2501 77.36 47.2501 77.36 41.1201V29.0601C77.36 29.0601 74.6 31.8401 71.83 31.8401Z" stroke="#00008F" stroke-width="2" stroke-linecap="round" stroke-linejoin="round"/>
<path d="M51.47 30.2401C51.4673 28.5032 51.807 26.7828 52.4696 25.1772C53.1321 23.5717 54.1046 22.1124 55.3314 20.8828C56.5582 19.6532 58.0153 18.6774 59.6193 18.0112C61.2234 17.345 62.9431 17.0015 64.68 17.0001H66.68C69.0147 16.9667 71.3171 17.5489 73.3553 18.6882C75.3935 19.8276 77.0955 21.4838 78.29 23.4901C78.9084 23.4518 79.5278 23.5458 80.107 23.7657C80.6863 23.9856 81.212 24.3264 81.6492 24.7655C82.0863 25.2045 82.4249 25.7317 82.6423 26.3119C82.8597 26.8921 82.9509 27.5119 82.91 28.1301V44.7601C82.8921 46.0722 83.2258 47.3651 83.8765 48.5046C84.5271 49.6441 85.471 50.5886 86.61 51.2401C86.0366 52.3858 85.2005 53.3798 84.17 54.1409C83.1394 54.9021 81.9436 55.4089 80.68 55.6201L79.21 55.8701M60.72 50.0301V55.0401M73.68 50.0301V55.0401M73.68 55.1101L81.18 56.2701C83.9906 56.7051 86.5525 58.1324 88.4016 60.2933C90.2507 62.4543 91.2648 65.206 91.26 68.0501V72.3801C91.2601 73.2418 90.961 74.0769 90.4138 74.7426C89.8667 75.4083 89.1054 75.8634 88.26 76.0301L78.39 77.9301C70.9985 79.3602 63.4014 79.3602 56.01 77.9301L46.14 76.0001C45.2946 75.8334 44.5333 75.3783 43.9861 74.7126C43.439 74.0469 43.1399 73.2118 43.14 72.3501V68.0501C43.1352 65.206 44.1492 62.4543 45.9983 60.2933C47.8474 58.1324 50.4093 56.7051 53.22 56.2701L60.72 55.1101" stroke="#00008F" stroke-width="2" stroke-linecap="round" stroke-linejoin="round"/>
<path d="M57 55.87L59.66 61.46C60.3387 62.8732 61.4027 64.0658 62.7297 64.9006C64.0566 65.7354 65.5924 66.1783 67.16 66.1783C68.7277 66.1783 70.2635 65.7354 71.5904 64.9006C72.9173 64.0658 73.9814 62.8732 74.66 61.46L77.32 55.87M53.32 72.52V77.31M81.08 72.52V77.31M55.17 55.87L53.7 55.62C52.4367 55.408 51.2412 54.9009 50.2107 54.1398C49.1803 53.3787 48.3441 52.3852 47.77 51.24C48.909 50.5885 49.8529 49.644 50.5035 48.5045C51.1541 47.365 51.4879 46.072 51.47 44.76V30" stroke="#00008F" stroke-width="2" stroke-linecap="round" stroke-linejoin="round"/>
</svg>

<svg width="96" height="96" viewBox="0 0 96 96" fill="none" xmlns="http://www.w3.org/2000/svg"><path d="M39.71 31.84c-2.68 0-5.25-2.13-6.28-4.63-1.68 3.62-3.71 6.49-8.8 6.49h-5.09v7.42c0 6.15 3.71 11.13 10.18 11.13s10.18-5 10.18-11.13v-9.28h-.19z" stroke="#00008F" stroke-width="2" stroke-linecap="round" stroke-linejoin="round"/><path d="M39.9 42.05a10.93 10.93 0 004.63-9.28v-5.56a3.72 3.72 0 00-3.7-3.72A13.27 13.27 0 0029.22 17h-1.09a13.22 13.22 0 00-13.21 13.24v2.28c0 3.58 1.85 7.67 4.62 9.53m3.71 8.35v4.64M36.2 50.4v4.64m-13.2.07l-7.79 1.16A12 12 0 004.74 68.05v4.33A3.76 3.76 0 007.86 76l10.24 1.9a63.543 63.543 0 0023.25 0l5.74-1.72M48.69 58a11.319 11.319 0 00-4.45-1.69l-7.79-1.16L48.69 58z" stroke="#00008F" stroke-width="2" stroke-linecap="round" stroke-linejoin="round"/><path d="M29.72 60.49l6.48-5.45 2.78.93-1.85 8.34-7.41-3.82zm0 0l-7.4 3.82-1.85-8.34 2.78-.93 6.47 5.45zm-3.7 1.97l1.85 3.71m0 0l-1.85 12.06m1.85-12.06h3.7m1.85-3.71l-1.85 3.71m0 0l1.85 12.06m-18.5-5.71v4.79m56.91-45.47H63.5a10.23 10.23 0 00-6.5 2.78v6.5c0 6.15 3.7 11.13 10.18 11.13 6.48 0 10.18-5 10.18-11.13V29.06s-2.76 2.78-5.53 2.78z" stroke="#00008F" stroke-width="2" stroke-linecap="round" stroke-linejoin="round"/><path d="M51.47 30.24A13.218 13.218 0 0164.68 17h2a13.292 13.292 0 0111.61 6.49 4.36 4.36 0 014.62 4.64v16.63a7.349 7.349 0 003.7 6.48 8.13 8.13 0 01-5.93 4.38l-1.47.25m-18.49-5.84v5.01m12.96-5.01v5.01m0 .07l7.5 1.16a11.9 11.9 0 0110.08 11.78v4.33a3.72 3.72 0 01-3 3.65l-9.87 1.9a58.908 58.908 0 01-22.38 0L46.14 76a3.72 3.72 0 01-3-3.65v-4.3a11.9 11.9 0 0110.08-11.78l7.5-1.16" stroke="#00008F" stroke-width="2" stroke-linecap="round" stroke-linejoin="round"/><path d="M57 55.87l2.66 5.59a8.32 8.32 0 0015 0l2.66-5.59m-24 16.65v4.79m27.76-4.79v4.79M55.17 55.87l-1.47-.25a8.141 8.141 0 01-5.93-4.38 7.35 7.35 0 003.7-6.48V30" stroke="#00008F" stroke-width="2" stroke-linecap="round" stroke-linejoin="round"/></svg>
